fs/comment_16_regular.svg

<svg viewBox="0 0 16 16" fill="none" xmlns="http://www.w3.org/2000/svg" height="1em" width="1em">
  <path d="M1 4.5C1 3.11929 2.11929 2 3.5 2H12.5C13.8807 2 15 3.11929 15 4.5V9.5C15 10.8807 13.8807 12 12.5 12H8.68787L5.62533 14.6797C4.99168 15.2342 4 14.7842 4 13.9422V12H3.5C2.11929 12 1 10.8807 1 9.5V4.5ZM3.5 3C2.67157 3 2 3.67157 2 4.5V9.5C2 10.3284 2.67157 11 3.5 11H5V13.8981L8.31213 11H12.5C13.3284 11 14 10.3284 14 9.5V4.5C14 3.67157 13.3284 3 12.5 3H3.5Z" fill="#212121"/>
</svg>

<svg viewBox="0 0 16 16" fill="none" xmlns="http://www.w3.org/2000/svg" height="1em" width="1em">
  <path d="M1 4.5A2.5 2.5 0 0 1 3.5 2h9A2.5 2.5 0 0 1 15 4.5v5a2.5 2.5 0 0 1-2.5 2.5H8.688l-3.063 2.68A.98.98 0 0 1 4 13.942V12h-.5A2.5 2.5 0 0 1 1 9.5v-5ZM3.5 3A1.5 1.5 0 0 0 2 4.5v5A1.5 1.5 0 0 0 3.5 11H5v2.898L8.312 11H12.5A1.5 1.5 0 0 0 14 9.5v-5A1.5 1.5 0 0 0 12.5 3h-9Z" fill="#212121"/>
</svg>
